X: 0742
M: 4/4
L: 1/16
K: D
fg |\
a3dfa3 d3afd3 | g3e gfed c2e2Te2 fg | a3df3a  Td3afd3 | g3eA3g fd3~d2 fg |
a3dfa3 d3afd3 | g3e gfed ce3e2 fg | f3dB3d A3dF3d | (Bcd2) (cde2) f2d2d2 |]

